src/com/lilithsthrone/res/statusEffects/recoveringOrifice.svg

<?xml version="1.0" encoding="UTF-8" standalone="no"?>
<!-- Created with Inkscape (http://www.inkscape.org/) -->

<svg
   xmlns:dc="http://purl.org/dc/elements/1.1/"
   xmlns:cc="http://creativecommons.org/ns#"
   xmlns:rdf="http://www.w3.org/1999/02/22-rdf-syntax-ns#"
   xmlns:svg="http://www.w3.org/2000/svg"
   xmlns="http://www.w3.org/2000/svg"
   xmlns:sodipodi="http://sodipodi.sourceforge.net/DTD/sodipodi-0.dtd"
   xmlns:inkscape="http://www.inkscape.org/namespaces/inkscape"
   width="100%"
   height="100%"
   viewBox="0 0 64.000001 64.000001"
   id="svg4311"
   version="1.1"
   inkscape:version="0.91 r13725"
   sodipodi:docname="recoveringOrifice.svg">
  <defs
     id="defs4313">
    <inkscape:path-effect
       effect="powerstroke"
       id="path-effect4183"
       is_visible="true"
       offset_points="0.238227,0.51804536"
       sort_points="true"
       interpolator_type="Linear"
       interpolator_beta="0.2"
       start_linecap_type="zerowidth"
       linejoin_type="round"
       miter_limit="4"
       end_linecap_type="zerowidth"
       cusp_linecap_type="round" />
  </defs>
  <sodipodi:namedview
     id="base"
     pagecolor="#ffffff"
     bordercolor="#666666"
     borderopacity="1.0"
     inkscape:pageopacity="0.0"
     inkscape:pageshadow="2"
     inkscape:zoom="5.6"
     inkscape:cx="42.373993"
     inkscape:cy="36.754491"
     inkscape:document-units="px"
     inkscape:current-layer="layer5"
     showgrid="false"
     units="px"
     inkscape:window-width="2560"
     inkscape:window-height="1388"
     inkscape:window-x="-8"
     inkscape:window-y="-8"
     inkscape:window-maximized="1" />
  <metadata
     id="metadata4316">
    <rdf:RDF>
      <cc:Work
         rdf:about="">
        <dc:format>image/svg+xml</dc:format>
        <dc:type
           rdf:resource="http://purl.org/dc/dcmitype/StillImage" />
        <dc:title />
      </cc:Work>
    </rdf:RDF>
  </metadata>
  <g
     inkscape:groupmode="layer"
     id="layer5"
     inkscape:label="Stage5"
     style="display:inline">
    <path
       style="fill:#ff8080;fill-rule:evenodd;stroke:#000000;stroke-width:1px;stroke-linecap:butt;stroke-linejoin:miter;stroke-opacity:1"
       d="m 52.198929,58.524957 -10.460535,-12.634855 -1.602203,3.608614 -1.574409,-9.972309 9.869342,2.004488 -3.776718,1.41531 11.899159,11.332938 z"
       id="path4138"
       inkscape:connector-curvature="0"
       sodipodi:nodetypes="cccccccc" />
    <path
       style="display:inline;fill:#ff8080;fill-rule:evenodd;stroke:#000000;stroke-width:1px;stroke-linecap:butt;stroke-linejoin:miter;stroke-opacity:1"
       d="m 57.524193,10.988028 -12.634855,10.460535 3.608614,1.602203 -9.972309,1.574409 2.004488,-9.869342 1.41531,3.776718 11.332938,-11.8991591 z"
       id="path4138-3"
       inkscape:connector-curvature="0"
       sodipodi:nodetypes="cccccccc" />
    <path
       style="display:inline;fill:#ff8080;fill-rule:evenodd;stroke:#000000;stroke-width:1px;stroke-linecap:butt;stroke-linejoin:miter;stroke-opacity:1"
       d="M 11.388425,6.0090299 21.84896,18.643886 23.451163,15.035272 25.025572,25.007581 15.15623,23.003093 18.932948,21.587783 7.0337878,10.254844 Z"
       id="path4138-8"
       inkscape:connector-curvature="0"
       sodipodi:nodetypes="cccccccc" />
    <path
       style="display:inline;fill:#ff8080;fill-rule:evenodd;stroke:#000000;stroke-width:1px;stroke-linecap:butt;stroke-linejoin:miter;stroke-opacity:1"
       d="M 7.0592629,53.487801 19.694118,43.027266 16.085504,41.425063 26.057813,39.850654 24.053325,49.719996 22.638015,45.943278 11.305077,57.842437 Z"
       id="path4138-34"
       inkscape:connector-curvature="0"
       sodipodi:nodetypes="cccccccc" />
  </g>
</svg>

<svg xmlns="http://www.w3.org/2000/svg" viewBox="0 0 64 64">
    <g fill="#ff8080" fill-rule="evenodd" stroke="#000">
        <path d="M52.199 58.525L41.739 45.89 40.135 49.5l-1.574-9.973 9.87 2.005-3.778 1.415 11.9 11.333zM57.524 10.988L44.89 21.448l3.609 1.603-9.972 1.574 2.004-9.87 1.415 3.778 11.333-11.9zM11.388 6.009L21.85 18.644l1.602-3.609 1.575 9.973-9.87-2.005 3.777-1.415-11.9-11.333zM7.06 53.488l12.634-10.46-3.608-1.603 9.972-1.574-2.005 9.869-1.415-3.777-11.333 11.9z"/>
    </g>
</svg>
